X:354
T:Gallowglass, The
R:jig
C:Niel Gow (1727-1807), Scotland
H:Also in Ador, #355
H:Original title "Niel Gow's Lament for his Brother"
Z:id:hn-jig-354
M:6/8
K:Edor
F|GFE BFA|GEE E2F|GFG Bcd|AFD DEF|
GFE BFA|GBe B2A|GFE DEF|GEE E2:|
|:B|efe B2A|GEE E2F|GFG Bcd|AFD D2B|
[1 efe B2A|GFE B2A|GFE DEF|GEE E2:|
[2 eBd cAc|BGB AFD|EFG BFA|GEE E2||

